dist/images/svg/sprite/close-filled.svg

<svg width="23" height="23" viewBox="0 0 23 23" fill="none" xmlns="http://www.w3.org/2000/svg">
<path d="M11.2727 1.65283C5.9102 1.65283 1.64771 5.91533 1.64771 11.2778C1.64771 16.6403 5.9102 20.9028 11.2727 20.9028C16.6352 20.9028 20.8977 16.6403 20.8977 11.2778C20.8977 5.91533 16.6352 1.65283 11.2727 1.65283ZM14.9852 16.0903L11.2727 12.3778L7.56021 16.0903L6.46021 14.9903L10.1727 11.2778L6.46021 7.56533L7.56021 6.46533L11.2727 10.1778L14.9852 6.46533L16.0852 7.56533L12.3727 11.2778L16.0852 14.9903L14.9852 16.0903Z" fill="#EE7263"/>
</svg>

<svg width="23" height="23" fill="none" xmlns="http://www.w3.org/2000/svg"><path d="M11.273 1.653a9.566 9.566 0 0 0-9.625 9.625 9.566 9.566 0 0 0 9.625 9.625 9.566 9.566 0 0 0 9.625-9.625 9.566 9.566 0 0 0-9.625-9.625Zm3.712 14.437-3.712-3.712L7.56 16.09l-1.1-1.1 3.713-3.712L6.46 7.565l1.1-1.1 3.713 3.713 3.712-3.713 1.1 1.1-3.712 3.713 3.712 3.712-1.1 1.1Z" fill="#EE7263"/></svg>
